pix_core/i/empty.svg

<svg preserveAspectRatio="xMinYMid meet" viewBox="0 0 448 512" xmlns="http://www.w3.org/2000/svg"><path d="m384 80c8.8 0 16 7.2 16 16v320c0 8.8-7.2 16-16 16h-320c-8.8 0-16-7.2-16-16v-320c0-8.8 7.2-16 16-16zm-320-48c-35.3 0-64 28.7-64 64v320c0 35.3 28.7 64 64 64h320c35.3 0 64-28.7 64-64v-320c0-35.3-28.7-64-64-64z" fill="#fff"/></svg>

<svg xmlns="http://www.w3.org/2000/svg" viewBox="0 0 448 512" preserveAspectRatio="xMinYMid meet"><!--!Font Awesome Free 6.5.2 by @fontawesome - https://fontawesome.com License - https://fontawesome.com/license/free Copyright 2024 Fonticons, Inc.--><path fill="#fff" d="M384 80c8.8 0 16 7.2 16 16V416c0 8.8-7.2 16-16 16H64c-8.8 0-16-7.2-16-16V96c0-8.8 7.2-16 16-16H384zM64 32C28.7 32 0 60.7 0 96V416c0 35.3 28.7 64 64 64H384c35.3 0 64-28.7 64-64V96c0-35.3-28.7-64-64-64H64z"/></svg>
